X:92
T:Johnny William's Jig
R:Jig 
S:Jim Mulqueeny, Clare (fiddle).
D:A mysterious tape
H:'c's and 'f's very mobile
H:A version of 'The Yellow Wattle'
Q:400
M:6/8
Z:Bernie Stocks
K:G
|: dcA ABG | ABG ABc | dcA ABc | dcA GED | dcA ABG | ABG AGE | D2A cde | dcA GED :|
|: DED c2d | edd dcd | D2A cde | dcA GED | DED c2d | edd dcd | efe cde | dcA GED :|
<end>
<start>
